X:038 
T:Contradiction (reel), The 
F:file ID: cre.5/038contra
B:CRE5.161 (An FrÃÂÃÂÃÂÃÂ­thrÃÂÃÂÃÂÃÂ¡)
M:4/4
%%%Q:180
R:reel
K:G
dc|B3G AD ~D2|B,DGB ADFA|BAGF GABd|egfa gedc|
"5"B3G AD ~D2|B,DGB ADFA|BAGF GABd|e3f g2:|
|:(3def|"9"g2gf gdBd|cBAG FABd|g2gf gdBd|cBAF DG~G2|
"13"gfaf gdBd|cBAG FGAc|BdGB cdeg|fadf g2:|
|:(3fed|"17"Bded Bded|egdB ADFA|Bded Bded|egaf gedc|
"21"Bded Bded|egdB ADFA|d4 edcd|1 egdf g2 :|2 egdf g4-|g8|]

%%%

